watsons.svg

<svg viewBox="0 0 24 24" xmlns="http://www.w3.org/2000/svg"><path d="M0.000177749 21.578C0.00507986 21.5334-0.012151 13.7811 0.0215039 13.2169C0.068631 12.4266 0.161489 11.5648 0.231581 11.2377C0.248244 11.16 0.280402 10.9851 0.303043 10.849C0.325683 10.713 0.357206 10.5619 0.373097 10.5133C0.388988 10.4647 0.421295 10.3295 0.444892 10.2129C0.468494 10.0962 0.500155 9.96106 0.515259 9.91246C0.530363 9.86389 0.5626 9.75256 0.586892 9.66508C0.652557 9.42868 0.762578 9.09623 0.814959 8.97595C0.840349 8.91761 0.872762 8.83016 0.886988 8.78156C0.970215 8.49722 1.54369 7.29722 1.63095 7.2248C1.65893 7.20156 1.68183 7.16798 1.68183 7.15016C1.68183 7.09292 2.20283 6.33461 2.44278 6.04262C2.76651 5.64868 3.22667 5.18547 3.64325 4.83419C5.57146 3.18221 7.60663 2.73095 9.68261 2.47978C9.84991 2.45954 10.3899 2.44059 10.5525 2.42243C10.6593 2.40734 13.7287 2.39668 17.3733 2.39875L23.9997 2.4025L23.9997 6.44904C23.9997 7.69009 23.9988 8.61436 23.9934 9.33002C24.095 12.8263 23.0287 16.7031 20.4686 19.1933C18.7567 20.6889 16.4959 21.5711 14.1669 21.569C14.1284 21.5942 0.0251545 21.603 0.000181756 21.578L0.000177749 21.578Z" fill="#019fa0"/><path d="M9.25242 16.3663C10.1514 16.1927 10.4569 15.6883 10.7802 14.9244C11.241 13.8665 11.6152 12.9683 12.0368 11.8916C12.4738 13.1713 13.232 15.041 13.8 15.8218C14.2476 16.2425 14.677 16.4162 15.2634 16.414C16.4083 16.3159 16.9981 15.788 17.3228 14.9236C17.9844 12.8392 18.637 10.7868 19.2271 8.84202C19.3754 8.35313 19.3554 7.86205 19.0038 7.53553C18.5452 7.16265 17.9756 7.21404 17.616 7.53542C17.449 7.73359 17.3314 7.98544 17.235 8.25888C16.6022 10.3035 15.872 12.5817 15.2562 14.3577C14.6396 13.1627 14.228 11.8737 13.7702 10.6976C13.5308 10.0982 13.2683 9.33934 12.8871 8.95627C12.6166 8.69126 12.3467 8.58487 11.9909 8.57651C11.444 8.56699 10.991 8.91136 10.6871 9.57976C10.6348 9.69471 10.4808 10.0751 10.3448 10.4249C10.2089 10.7748 9.97548 11.3712 9.82621 11.7502C9.67697 12.1293 9.54243 12.4812 9.52723 12.5323C9.51203 12.5834 9.47591 12.6788 9.44691 12.7443C9.41795 12.8098 9.35877 12.9589 9.31545 13.0755C9.27213 13.1921 9.20885 13.3512 9.17481 13.4289C9.14078 13.5067 9.05362 13.7326 8.98113 13.931C8.90864 14.1294 8.8272 14.3101 8.80014 14.3326C8.74402 14.3791 8.64878 14.3536 8.62928 14.2868C7.86032 12.0992 7.20734 9.65239 6.49778 7.79232C6.42769 7.67743 6.3491 7.57436 6.25799 7.49059C6.08723 7.33355 5.87252 7.24431 5.58734 7.27214C5.38109 7.29454 5.18113 7.37623 5.02564 7.51309C4.71855 7.78343 4.61196 8.13023 4.70346 8.56762C5.32487 10.5606 5.87767 12.3964 6.44744 14.2241C6.68638 14.9903 6.73845 15.1357 6.84321 15.3291C7.09552 15.7949 7.59947 16.2052 8.06974 16.3277C8.44138 16.4469 8.87365 16.4532 9.25242 16.3664L9.25242 16.3663Z" fill="#ffffff"/><path d="M0.000291286 19.2589L0.000181756 21.578C1.64114 21.5932 3.27929 21.5937 4.92088 21.5933C7.88656 21.5986 10.3886 21.611 13.1163 21.5885C13.4281 21.5885 13.6836 21.5756 13.9722 21.5756C15.4109 21.5921 16.6531 21.3476 17.8309 20.8332C18.0535 20.7452 18.2855 20.6473 18.5287 20.5386C18.9431 20.3188 19.3786 20.0435 19.8445 19.6932C19.9663 19.6016 20.0904 19.5053 20.218 19.4054C20.2808 19.3561 20.341 19.3029 20.4035 19.2497L0.000291286 19.2589Z" fill="#e71a11"/></svg>

<svg viewBox="0 0 24 24" xmlns="http://www.w3.org/2000/svg"><path d="M0 21.578c.005-.045-.012-7.797.022-8.361.047-.79.14-1.652.21-1.98.016-.077.048-.252.071-.388.023-.136.054-.287.07-.336.016-.048.048-.184.072-.3.023-.117.055-.252.07-.3.015-.05.048-.16.072-.248a7.26 7.26 0 0 1 .228-.689c.025-.058.058-.146.072-.194.083-.285.657-1.485.744-1.557.028-.023.05-.057.05-.075 0-.057.522-.815.762-1.107.324-.394.784-.858 1.2-1.209 1.928-1.652 3.964-2.103 6.04-2.354.167-.02.707-.04.87-.058.106-.015 3.176-.025 6.82-.023L24 2.402V6.45c0 1.241-.001 2.165-.007 2.881.102 3.496-.964 7.373-3.524 9.863a9.64 9.64 0 0 1-6.302 2.376c-.039.025-14.142.034-14.167.009Z" fill="#019fa0"/><path d="M9.252 16.366c.9-.173 1.205-.678 1.528-1.442a82.76 82.76 0 0 0 1.257-3.032c.437 1.28 1.195 3.149 1.763 3.93.448.42.877.594 1.463.592 1.145-.098 1.735-.626 2.06-1.49.661-2.085 1.314-4.137 1.904-6.082.148-.489.128-.98-.223-1.306-.459-.373-1.028-.322-1.388 0-.167.198-.285.45-.381.723a205.18 205.18 0 0 1-1.979 6.099c-.616-1.195-1.028-2.484-1.486-3.66-.24-.6-.502-1.359-.883-1.742a1.222 1.222 0 0 0-.896-.38c-.547-.009-1 .335-1.304 1.004-.052.115-.206.495-.342.845-.136.35-.37.946-.519 1.325-.149.38-.284.731-.299.782a2.189 2.189 0 0 1-.08.212 7.595 7.595 0 0 0-.132.332 8.32 8.32 0 0 1-.14.353 12.44 12.44 0 0 0-.194.502c-.072.198-.154.38-.18.402-.057.046-.152.02-.172-.046-.769-2.188-1.422-4.635-2.131-6.495a1.388 1.388 0 0 0-.24-.301.823.823 0 0 0-.67-.219 1.018 1.018 0 0 0-.562.241c-.307.27-.414.617-.323 1.055.622 1.993 1.175 3.828 1.744 5.656.24.766.291.912.396 1.105.253.466.756.876 1.227.999.371.119.804.125 1.182.038Z" fill="#fff"/><path d="M0 19.259v2.319c1.641.015 3.28.016 4.92.015 2.967.006 5.469.018 8.196-.005.312 0 .568-.012.856-.012 1.439.016 2.681-.228 3.859-.743.223-.088.454-.186.698-.294.414-.22.85-.495 1.316-.846.121-.091.245-.188.373-.288.063-.049.123-.102.186-.155L0 19.259Z" fill="#e71a11"/></svg>
